libs/ui/packages/crypto-icons/src/svg/EMC.svg

<svg width="24" height="24" viewBox="0 0 24 24" fill="none"><path fill="#b49ffc" fill-rule="evenodd" d="M6 6v2.4h4.8v2.4H6v2.4h7.2V8.4h2.4v7.2H6V18h12V6z" clip-rule="evenodd"/></svg>

<svg width="24" height="24" viewBox="0 0 24 24" fill="none">
<path fill-rule="evenodd" clip-rule="evenodd" d="M6 6V8.4H10.8V10.8H6V13.2H13.2V8.4H15.6V15.6H6V18H18V6H6Z" fill="#B49FFC"/>
</svg>
